resources/svg/rocket-2-line.svg

<svg fill="currentColor" viewBox="0 0 24 24" xmlns="http://www.w3.org/2000/svg"><path d="M15.5018 20.0047C14.8432 21.5841 13.5794 22.848 12 23.5066C10.4206 22.848 9.15679 21.5841 8.49816 20.0047H10.7575C11.0838 20.4933 11.5051 20.9171 12 21.248C12.4949 20.9171 12.9162 20.4933 13.2425 20.0047H15.5018ZM18 14.8095L20 17.0777V19.0047H4V17.0777L6 14.8095V9.00475C6 5.5215 8.50442 2.55819 12 1.45996C15.4956 2.55819 18 5.5215 18 9.00475V14.8095ZM17.2692 17.0047L16 15.5653V9.00475C16 6.68691 14.4292 4.57428 12 3.58381C9.57078 4.57428 8 6.68691 8 9.00475V15.5653L6.73076 17.0047H17.2692ZM12 11.0047C10.8954 11.0047 10 10.1093 10 9.00475C10 7.90018 10.8954 7.00475 12 7.00475C13.1046 7.00475 14 7.90018 14 9.00475C14 10.1093 13.1046 11.0047 12 11.0047Z"/></svg>

<svg xmlns="http://www.w3.org/2000/svg" viewBox="0 0 24 24" fill="currentColor">
    <g>
        <path fill="none" d="M0 0h24v24H0z"/>
        <path d="M15.502 20A6.523 6.523 0 0 1 12 23.502 6.523 6.523 0 0 1 8.498 20h2.26c.326.489.747.912 1.242 1.243.495-.33.916-.754 1.243-1.243h2.259zM18 14.805l2 2.268V19H4v-1.927l2-2.268V9c0-3.483 2.504-6.447 6-7.545C15.496 2.553 18 5.517 18 9v5.805zM17.27 17L16 15.56V9c0-2.318-1.57-4.43-4-5.42C9.57 4.57 8 6.681 8 9v6.56L6.73 17h10.54zM12 11a2 2 0 1 1 0-4 2 2 0 0 1 0 4z"/>
    </g>
</svg>
